X: 81
T:Go To Bed Betty and... JaW.081
M:6/8
Q:80
C:"....I'll come to thee love"
S:James Winder Ms, Lancashire, 1835-41
R:Air
O:England
A:Wyresdale,Lancashire
N:"....I'll come to thee love"
H:1/8
Z:vmp.Chris Partington, Aug 2004
K:C
(g/f/)|e>dc cGc|ded egf|e>dc cGA|c>dc dag:|!
|:c2c (e/f/)ge|d2d (f/g/)af|c2c (e/f/)ge|c2c (e/f/)ge|!
(f/g/)af (e/f/)ge|d>ed eag|e>dc cGA|cdc eag:|!
|:cgc ece|dad ada|cgc gcg|cgc efg|!
a2(ba)(gf)|g2(ag)(fe)|ded eag|!
e>dc cGA|c>dc eag:|]|
